icons/board-add.svg

<svg xmlns="http://www.w3.org/2000/svg" viewBox="0 0 24 24" fill="currentColor">
  <path d="M7 4.25c-1.78579 0-3.25 1.46421-3.25 3.25v6c0 1.7858 1.46421 3.25 3.25 3.25h1.48711c.00902-.0002.01804-.0002.02707 0h6.97152c.0091-.0002.0181-.0002.0271 0H17c1.7858 0 3.25-1.4642 3.25-3.25v-6c0-.41421.3358-.75.75-.75s.75.33579.75.75v6c0 2.6142-2.1358 4.75-4.75 4.75h-.0986l1.2226 1.8339c.2298.3447.1366.8103-.208 1.0401-.3447.2298-.8103.1366-1.0401-.208l-1.7773-2.666H8.90132L7.124 20.916c-.22977.3446-.69542.4378-1.04007.208-.34464-.2298-.43777-.6954-.20801-1.0401L7.09854 18.25H7c-2.61421 0-4.75-2.1358-4.75-4.75v-6c0-2.61421 2.13579-4.75 4.75-4.75.41421 0 .75.33579.75.75s-.33579.75-.75.75Zm6.4.5c.4142 0 .75.33579.75.75v1.65002h1.75c.4142 0 .75.33579.75.75 0 .41422-.3358.75-.75.75h-1.75V10.4c0 .4142-.3358.75-.75.75s-.75-.3358-.75-.75V8.65002H11c-.4142 0-.75-.33578-.75-.75 0-.41421.3358-.75.75-.75h1.65V5.5c0-.41421.3358-.75.75-.75Z"/>
</svg>

<svg width="24" height="24" viewBox="0 0 24 24" fill="none" xmlns="http://www.w3.org/2000/svg">
<path fill-rule="evenodd" clip-rule="evenodd" d="M7 4.25C5.21421 4.25 3.75 5.71421 3.75 7.5V13.5C3.75 15.2858 5.21421 16.75 7 16.75H8.48711C8.49613 16.7498 8.50515 16.7498 8.51418 16.75H15.4857C15.4948 16.7498 15.5038 16.7498 15.5128 16.75H17C18.7858 16.75 20.25 15.2858 20.25 13.5V7.5C20.25 7.08579 20.5858 6.75 21 6.75C21.4142 6.75 21.75 7.08579 21.75 7.5V13.5C21.75 16.1142 19.6142 18.25 17 18.25H16.9014L18.124 20.0839C18.3538 20.4286 18.2606 20.8942 17.916 21.124C17.5713 21.3538 17.1057 21.2606 16.8759 20.916L15.0986 18.25H8.90132L7.124 20.916C6.89423 21.2606 6.42858 21.3538 6.08393 21.124C5.73929 20.8942 5.64616 20.4286 5.87592 20.0839L7.09854 18.25H7C4.38579 18.25 2.25 16.1142 2.25 13.5V7.5C2.25 4.88579 4.38579 2.75 7 2.75C7.41421 2.75 7.75 3.08579 7.75 3.5C7.75 3.91421 7.41421 4.25 7 4.25ZM13.4 4.75C13.8142 4.75 14.15 5.08579 14.15 5.5V7.15002H15.9C16.3142 7.15002 16.65 7.48581 16.65 7.90002C16.65 8.31424 16.3142 8.65002 15.9 8.65002H14.15V10.4C14.15 10.8142 13.8142 11.15 13.4 11.15C12.9858 11.15 12.65 10.8142 12.65 10.4V8.65002H11C10.5858 8.65002 10.25 8.31424 10.25 7.90002C10.25 7.48581 10.5858 7.15002 11 7.15002H12.65V5.5C12.65 5.08579 12.9858 4.75 13.4 4.75Z" fill="black"/>
</svg>
